X: 305819
M: 2/4
L: 1/16
K: G
e2e2 e2cA | d2d2 d2AB | c2de d2F2 | G6 H|]
d2 |\
.e.d.e.d .e.e.d.^c | .d.^c.d.c .d.d.=c.B | .c.B.c.B .c.d.e.c | B6 Ad |\
.e.d.e.d .e.e.d.^c | d^cdc defg | (ge)(ec) (cB)(BA) | A6 "^D.C."G2 |]


